X:361
T:Reel 361
M:4/4
K:Amix
L:1/8
ED|C<A,A,G, E,A,A,D|C>A, (3A,A,A, EFED|C>A, (3A,A,A, E,F,G,A,|B,G,G,F, G,A,B,D|C<A,A,G, E,A,A,2|CA,A,C CDED|CB,CD EFGE|DB,G,B, DFED|CB,CD EAAG|EAAG EAA2|cAAG EACE|DB,GE DB,G,B,|EAAG EAcA|ABcA BGED|CB,CD EFGE|DB,G,B, DFED|
